X:1
T:Standin In The Need of Prayer
T:Shine, shine
T:Copyright 1881 by The Riverside Press
T:Rodeheaver's Plantation Melodies
Z:Rodeheaver's Plantation Melodies
L:1/8
Q:1/4=70
M:2/4
K:D
V:1 treble nm="Soprano" snm="S."
V:1
 (F/A/) | AA AA | c/cc/ BA | BB BB | d/dd/ AF | AA AA | c/cc/ BA | B/A/F/E/ DF/F/ | E2 A2 | %9
w: I- *|don't care where you|bu- ry my bo- dy.|Don't care where you|bu- ry my bo- dy.|Don't care where you|bu- ry my bo- dy.|O my lit- tle soul's going to|shine shine.|
w: You may|bu- ry my bo-|dy in the Egypt garden.|Bury my body in|the E- gypt gar- den.|Bury my body in|the E- gypts gar- den.|||
w: I'm *|go- ing to join|the forty- four thou- sand.|Going to join the|for- ty- four thou- sand.|Going to * the|for- ty- for thou- sand.|||
w: |Great big stars- *|way up * yon- der.|Great big stars- *|way up- * yon- der.|Great big stars- *|way up- * yon- der.-|||
 B/A/F/E/ DF/F/ | E2 D2 | B/A/F/E/ DF/F/ | E2 A2 | B/A/F/E/ DF/F/ | E2 D2 |] %15
w: O my lit- tle soul's going to|shine shine.|All a- round the heaven going to|shine shine.|All a- round the heaven going to|shine shine.|
w: ||||||
w: ||||||
w: ||||||

